Newaita-dark/.DP/32/skype-status-away-notification.svg

<svg xmlns="http://www.w3.org/2000/svg" xmlns:xlink="http://www.w3.org/1999/xlink" width="32px" height="32px" viewBox="0 0 32 32" version="1.1">
<g id="surface1">
<path style=" stroke:none;fill-rule:nonzero;fill:rgb(93.333334%,93.333334%,93.333334%);fill-opacity:1;" d="M 10.726562 4.199219 C 7.59375 4.199219 5.070312 6.722656 5.070312 9.855469 C 5.070312 10.804688 5.300781 11.695312 5.707031 12.480469 C 5.296875 13.621094 5.070312 14.855469 5.070312 16.140625 C 5.070312 22.058594 9.835938 26.824219 15.753906 26.824219 C 16.214844 26.824219 16.667969 26.796875 17.117188 26.738281 C 18.101562 27.578125 19.378906 28.082031 20.78125 28.082031 C 23.917969 28.082031 26.441406 25.558594 26.441406 22.425781 C 26.441406 21.480469 26.207031 20.585938 25.800781 19.804688 C 26.214844 18.660156 26.441406 17.429688 26.441406 16.140625 C 26.441406 14.402344 26.027344 12.761719 25.292969 11.3125 C 24.933594 11.433594 24.546875 11.496094 24.144531 11.496094 C 22.128906 11.496094 20.507812 9.871094 20.507812 7.855469 C 20.507812 7.441406 20.578125 7.035156 20.707031 6.664062 C 19.226562 5.894531 17.542969 5.457031 15.753906 5.457031 C 15.292969 5.457031 14.839844 5.488281 14.394531 5.542969 C 13.40625 4.703125 12.128906 4.199219 10.726562 4.199219 Z M 17.058594 11.496094 C 17.414062 11.496094 17.753906 11.636719 18.003906 11.894531 L 21.308594 15.199219 C 21.824219 15.714844 21.824219 16.550781 21.308594 17.066406 L 18.003906 20.371094 C 17.671875 20.710938 17.183594 20.847656 16.722656 20.726562 C 16.265625 20.605469 15.90625 20.246094 15.785156 19.789062 C 15.664062 19.328125 15.800781 18.839844 16.140625 18.511719 L 17.199219 17.449219 L 11.117188 17.449219 C 10.644531 17.457031 10.199219 17.207031 9.960938 16.796875 C 9.722656 16.386719 9.722656 15.878906 9.960938 15.46875 C 10.199219 15.058594 10.644531 14.808594 11.117188 14.816406 L 17.199219 14.816406 L 16.140625 13.753906 C 15.753906 13.382812 15.636719 12.8125 15.839844 12.316406 C 16.039062 11.820312 16.519531 11.496094 17.058594 11.496094 Z M 17.058594 11.496094 "/>
<path style=" stroke:none;fill-rule:nonzero;fill:rgb(93.333334%,93.333334%,93.333334%);fill-opacity:1;" d="M 24.144531 5.542969 C 25.425781 5.542969 26.460938 6.578125 26.460938 7.855469 C 26.460938 9.136719 25.425781 10.171875 24.144531 10.171875 C 22.867188 10.171875 21.832031 9.136719 21.832031 7.855469 C 21.832031 6.578125 22.867188 5.542969 24.144531 5.542969 Z M 24.144531 5.542969 "/>
</g>
</svg>

<svg xmlns="http://www.w3.org/2000/svg" width="32pt" height="32pt" viewBox="0 0 32 32"><g fill="#bdbdbd"><path d="M10.727 4.2A5.645 5.645 0 0 0 5.07 9.854c0 .95.23 1.84.64 2.625a10.713 10.713 0 0 0-.64 3.66 10.661 10.661 0 0 0 10.684 10.684c.46 0 .918-.027 1.363-.082a5.643 5.643 0 0 0 3.664 1.34 5.642 5.642 0 0 0 5.657-5.656c0-.95-.231-1.84-.637-2.621.414-1.14.637-2.375.637-3.664 0-1.739-.41-3.38-1.145-4.828-.36.117-.746.183-1.148.183a3.628 3.628 0 0 1-3.637-3.637c0-.421.07-.82.199-1.195a10.659 10.659 0 0 0-4.953-1.207c-.461 0-.914.027-1.363.086a5.618 5.618 0 0 0-3.664-1.344zm6.332 7.296c.355 0 .695.145.945.399l3.305 3.308a1.31 1.31 0 0 1 0 1.86l-3.305 3.308c-.332.34-.82.477-1.281.356a1.322 1.322 0 0 1-.938-.938c-.12-.46.016-.95.356-1.281l1.058-1.059h-6.082a1.311 1.311 0 0 1-1.156-.652 1.323 1.323 0 0 1 0-1.328c.238-.41.68-.66 1.156-.653H17.2l-1.058-1.058a1.321 1.321 0 0 1-.305-1.442c.203-.496.684-.82 1.223-.82zm0 0"/><path d="M24.145 5.543a2.314 2.314 0 1 1 .004 4.628 2.314 2.314 0 0 1-.004-4.628zm0 0"/></g></svg>
